images/Избранное.svg

<svg width="45" height="66" viewBox="0 0 45 66" fill="none" xmlns="http://www.w3.org/2000/svg">
<path d="M20.5766 41C20.2758 41 19.9749 40.9 19.7744 40.6C14.359 34.5 13.0553 33.1 12.7545 32.7C12.0525 31.8 11.6514 30.6 11.6514 29.4C11.6514 26.4 14.0582 24 17.167 24C18.4707 24 19.6741 24.5 20.6769 25.3C21.6797 24.5 22.9834 24 24.1868 24C27.1954 24 29.7025 26.4 29.7025 29.4C29.7025 30.7 29.201 31.9 28.3988 32.8L21.3789 40.7C21.1783 40.9 20.9778 41 20.5766 41ZM14.5596 31.5C14.8604 31.9 18.0695 35.5 20.6769 38.4L26.8945 31.4C27.3959 30.9 27.5965 30.2 27.5965 29.4C27.5965 27.6 26.0922 26.1 24.2871 26.1C23.2843 26.1 22.2815 26.6 21.5795 27.4C21.2786 27.7 20.9778 27.8 20.6769 27.8C20.3761 27.8 20.0752 27.6 19.8746 27.4C19.1727 26.6 18.1698 26.1 17.167 26.1C15.3619 26.1 13.8576 27.6 13.8576 29.4C13.7573 30.3 14.1585 31 14.5596 31.5C14.4593 31.5 14.4593 31.5 14.5596 31.5Z" fill="black"/>
<rect x="24.1328" y="15" width="20" height="20" rx="10" fill="#7DB54F"/>
<path d="M30.2637 26.76H31.6637V21.92L31.7637 21.33L31.3637 21.8L30.2637 22.59L29.8837 22.08L32.0837 20.38H32.4437V26.76H33.8137V27.5H30.2637V26.76ZM38.0929 22.09C38.0929 22.4433 38.0263 22.8067 37.8929 23.18C37.7663 23.5467 37.5963 23.9167 37.3829 24.29C37.1763 24.6633 36.9429 25.03 36.6829 25.39C36.4229 25.7433 36.1629 26.08 35.9029 26.4L35.4129 26.83V26.87L36.0529 26.76H38.2329V27.5H34.2529V27.21C34.3996 27.0567 34.5763 26.8667 34.7829 26.64C34.9896 26.4133 35.2029 26.1633 35.4229 25.89C35.6496 25.61 35.8696 25.3167 36.0829 25.01C36.3029 24.6967 36.4996 24.38 36.6729 24.06C36.8529 23.74 36.9963 23.4233 37.1029 23.11C37.2096 22.7967 37.2629 22.5 37.2629 22.22C37.2629 21.8933 37.1696 21.6233 36.9829 21.41C36.7963 21.19 36.5129 21.08 36.1329 21.08C35.8796 21.08 35.6329 21.1333 35.3929 21.24C35.1529 21.34 34.9463 21.4567 34.7729 21.59L34.4429 21.02C34.6763 20.82 34.9529 20.6633 35.2729 20.55C35.5929 20.4367 35.9363 20.38 36.3029 20.38C36.5896 20.38 36.8429 20.4233 37.0629 20.51C37.2829 20.59 37.4696 20.7067 37.6229 20.86C37.7763 21.0133 37.8929 21.1967 37.9729 21.41C38.0529 21.6167 38.0929 21.8433 38.0929 22.09Z" fill="white"/>
</svg>

<svg width="45" height="66" fill="none" xmlns="http://www.w3.org/2000/svg"><path d="M20.58 41c-.3 0-.6-.1-.8-.4-5.42-6.1-6.72-7.5-7.03-7.9a5.4 5.4 0 0 1 4.41-8.7c1.31 0 2.51.5 3.52 1.3a5.47 5.47 0 0 1 9.03 4.1c0 1.3-.5 2.5-1.31 3.4l-7.02 7.9c-.2.2-.4.3-.8.3Zm-6.02-9.5c.3.4 3.51 4 6.12 6.9l6.21-7c.5-.5.7-1.2.7-2 0-1.8-1.5-3.3-3.3-3.3-1 0-2 .5-2.71 1.3-.3.3-.6.4-.9.4-.3 0-.6-.2-.8-.4-.7-.8-1.71-1.3-2.71-1.3-1.8 0-3.31 1.5-3.31 3.3-.1.9.3 1.6.7 2.1-.1 0-.1 0 0 0Z" fill="#000"/><rect x="24.13" y="15" width="20" height="20" rx="10" fill="#7DB54F"/><path d="M30.26 26.76h1.4v-4.84l.1-.59-.4.47-1.1.79-.38-.51 2.2-1.7h.36v6.38h1.37v.74h-3.55v-.74Zm7.83-4.67c0 .35-.06.72-.2 1.09-.12.37-.3.74-.5 1.11-.21.37-.45.74-.7 1.1l-.79 1.01-.49.43v.04l.64-.11h2.18v.74h-3.98v-.29a32.75 32.75 0 0 0 1.17-1.32 15.09 15.09 0 0 0 1.25-1.83c.18-.32.33-.64.43-.95.11-.31.16-.61.16-.89 0-.33-.09-.6-.28-.81-.18-.22-.47-.33-.85-.33-.25 0-.5.05-.74.16-.24.1-.44.22-.62.35l-.33-.57c.24-.2.51-.36.83-.47.32-.11.67-.17 1.03-.17.29 0 .54.04.76.13a1.5 1.5 0 0 1 .91.9c.08.2.12.43.12.68Z" fill="#fff"/></svg>
